flaticon/dialogue/inbox.svg

<svg xmlns="http://www.w3.org/2000/svg" width="32" height="32" viewBox="0 0 24 24">
    <path d="M 22.601562 0 L 1.398438 0 C 0.628906 0 0 0.628906 0 1.398438 L 0 22.597656 C 0 23.371094 0.628906 24 1.398438 24 L 22.597656 24 C 23.371094 24 24 23.371094 24 22.601562 L 24 1.398438 C 24 0.628906 23.371094 0 22.601562 0 Z M 23.171875 22.601562 C 23.171875 22.914062 22.914062 23.171875 22.601562 23.171875 L 1.398438 23.171875 C 1.085938 23.171875 0.828125 22.914062 0.828125 22.601562 L 0.828125 1.398438 C 0.828125 1.085938 1.085938 0.828125 1.398438 0.828125 L 22.597656 0.828125 C 22.914062 0.828125 23.171875 1.085938 23.171875 1.398438 Z M 23.171875 22.601562"/>
    <path d="M 2.070312 16.136719 L 7.035156 16.136719 L 7.035156 19.035156 L 16.964844 19.035156 L 16.964844 16.136719 L 21.929688 16.136719 L 21.929688 1.65625 L 2.070312 1.65625 Z M 2.898438 2.484375 L 21.101562 2.484375 L 21.101562 15.308594 L 16.136719 15.308594 L 16.136719 18.207031 L 7.863281 18.207031 L 7.863281 15.308594 L 2.898438 15.308594 Z M 2.898438 2.484375"/>
    <path d="M5.378906 6.621094L12.828125 6.621094C13.054688 6.621094 13.242188 6.433594 13.242188 6.207031 13.242188 5.976562 13.054688 5.792969 12.828125 5.792969L5.378906 5.792969C5.152344 5.792969 4.964844 5.976562 4.964844 6.207031 4.964844 6.433594 5.152344 6.621094 5.378906 6.621094zM18.621094 11.585938L14.070312 11.585938C13.839844 11.585938 13.65625 11.773438 13.65625 12 13.65625 12.226562 13.839844 12.414062 14.070312 12.414062L18.621094 12.414062C18.847656 12.414062 19.035156 12.226562 19.035156 12 19.035156 11.773438 18.847656 11.585938 18.621094 11.585938zM5.378906 9.515625L7.863281 9.515625C8.089844 9.515625 8.277344 9.332031 8.277344 9.101562 8.277344 8.875 8.089844 8.691406 7.863281 8.691406L5.378906 8.691406C5.152344 8.691406 4.964844 8.875 4.964844 9.101562 4.964844 9.332031 5.152344 9.515625 5.378906 9.515625zM11.585938 9.101562C11.585938 9.332031 11.773438 9.515625 12 9.515625L16.550781 9.515625C16.78125 9.515625 16.964844 9.332031 16.964844 9.101562 16.964844 8.875 16.78125 8.691406 16.550781 8.691406L12 8.691406C11.773438 8.691406 11.585938 8.875 11.585938 9.101562zM9.636719 8.808594C9.5625 8.886719 9.515625 8.996094 9.515625 9.101562 9.515625 9.210938 9.5625 9.320312 9.636719 9.398438 9.714844 9.472656 9.824219 9.515625 9.929688 9.515625 10.042969 9.515625 10.144531 9.472656 10.226562 9.398438 10.300781 9.320312 10.34375 9.210938 10.34375 9.101562 10.34375 8.996094 10.300781 8.886719 10.226562 8.808594 10.070312 8.65625 9.792969 8.65625 9.636719 8.808594zM12.414062 12C12.414062 11.773438 12.226562 11.585938 12 11.585938L7.449219 11.585938C7.21875 11.585938 7.035156 11.773438 7.035156 12 7.035156 12.226562 7.21875 12.414062 7.449219 12.414062L12 12.414062C12.226562 12.414062 12.414062 12.226562 12.414062 12zM5.085938 11.707031C5.011719 11.785156 4.964844 11.890625 4.964844 12 4.964844 12.109375 5.011719 12.214844 5.085938 12.292969 5.164062 12.367188 5.273438 12.414062 5.378906 12.414062 5.488281 12.414062 5.59375 12.367188 5.671875 12.292969 5.746094 12.214844 5.792969 12.109375 5.792969 12 5.792969 11.890625 5.746094 11.785156 5.671875 11.707031 5.515625 11.554688 5.238281 11.554688 5.085938 11.707031zM18.621094 9.515625C18.726562 9.515625 18.835938 9.472656 18.914062 9.398438 18.988281 9.320312 19.035156 9.210938 19.035156 9.101562 19.035156 8.996094 18.988281 8.886719 18.914062 8.808594 18.761719 8.65625 18.480469 8.65625 18.328125 8.808594 18.253906 8.886719 18.207031 8.996094 18.207031 9.101562 18.207031 9.210938 18.253906 9.320312 18.328125 9.398438 18.40625 9.472656 18.507812 9.515625 18.621094 9.515625zM18.621094 9.515625"/>
</svg>

<svg xmlns="http://www.w3.org/2000/svg" width="32" height="32" viewBox="0 0 24 24">
    <path d="M22.602 0H1.398C.628 0 0 .629 0 1.398v21.2C0 23.37.629 24 1.398 24h21.2C23.37 24 24 23.371 24 22.602V1.398C24 .628 23.371 0 22.602 0zm.57 22.602c0 .312-.258.57-.57.57H1.398a.574.574 0 0 1-.57-.57V1.398c0-.312.258-.57.57-.57h21.2c.316 0 .574.258.574.57zm0 0"/>
    <path d="M2.07 16.137h4.965v2.898h9.93v-2.898h4.965V1.657H2.07zm.828-13.653h18.204V15.31h-4.965v2.898H7.863v-2.898H2.898zm0 0"/>
    <path d="M5.379 6.621h7.45a.414.414 0 0 0 0-.828h-7.45a.414.414 0 0 0 0 .828zm0 0M18.621 11.586h-4.55a.414.414 0 0 0 0 .828h4.55a.417.417 0 0 0 .414-.414.417.417 0 0 0-.414-.414zm0 0M5.379 9.516h2.484a.414.414 0 0 0 .414-.414.413.413 0 0 0-.414-.41H5.38a.413.413 0 0 0-.414.41c0 .23.187.414.414.414zm0 0M11.586 9.102c0 .23.187.414.414.414h4.55a.412.412 0 1 0 0-.825H12a.413.413 0 0 0-.414.41zm0 0M9.637 8.809a.439.439 0 0 0-.121.293c0 .109.046.218.12.296a.435.435 0 0 0 .294.118.437.437 0 0 0 .297-.118.437.437 0 0 0 .117-.296.435.435 0 0 0-.117-.293.438.438 0 0 0-.59 0zm0 0M12.414 12a.417.417 0 0 0-.414-.414H7.45a.414.414 0 0 0 0 .828H12a.417.417 0 0 0 .414-.414zm0 0M5.086 11.707a.431.431 0 0 0-.121.293c0 .11.047.215.12.293a.439.439 0 0 0 .294.121c.11 0 .215-.047.293-.121A.431.431 0 0 0 5.793 12a.431.431 0 0 0-.121-.293.433.433 0 0 0-.586 0zm0 0M18.621 9.516a.435.435 0 0 0 .293-.118.44.44 0 0 0 .121-.296.439.439 0 0 0-.12-.293.433.433 0 0 0-.587 0 .439.439 0 0 0-.121.293c0 .109.047.218.121.296a.42.42 0 0 0 .293.118zm0 0"/>
</svg>
